assets/components_previews/other/dark/theme.svg

<svg xmlns="http://www.w3.org/2000/svg" width="320" height="232" fill="none" viewBox="0 0 320 232"><path fill="#5F43D0" fill-rule="evenodd" d="M165.118 103.222a1 1 0 0 0 .104 1.411l1.84 1.585c.366.316.587.508.728.657-.141.149-.362.341-.728.657l-1.84 1.586a1 1 0 0 0 1.306 1.515l1.84-1.586.043-.038c.349-.3.684-.589.923-.859.262-.296.541-.713.541-1.275s-.279-.979-.541-1.275c-.239-.27-.574-.558-.923-.859l-.043-.038-1.84-1.585a1 1 0 0 0-1.41.104m-2.486 0a1 1 0 0 1-.104 1.411l-1.84 1.585c-.366.316-.587.508-.728.657.141.149.362.341.728.657l1.84 1.586a1 1 0 0 1-1.306 1.515l-1.84-1.586-.043-.038c-.349-.3-.684-.589-.923-.859-.262-.296-.541-.713-.541-1.275s.279-.979.541-1.275c.239-.27.574-.558.923-.859l.043-.038 1.84-1.585a1 1 0 0 1 1.41.104" clip-rule="evenodd"/><path fill="#5F43D0" d="M154.812 110.522c.982.103.545.103 2.086.103a.978.978 0 0 0 0-1.955c-1.609 0-1.015-.001-1.885-.092-.854-.089-1.337-.256-1.695-.509a3 3 0 0 1-.632-.596c-.255-.323-.425-.756-.517-1.542-.095-.81-.097-1.867-.097-3.391v-2.9c0-.267 0-.906.281-1.378.173-.29.394-.534.622-.658a2.6 2.6 0 0 1 1.233-.312l1.041.036c.38.008.823-.004 1.251-.119a2.42 2.42 0 0 0 1.709-1.709c.115-.428.127-.871.119-1.251l-.036-1.04c0-.469.124-.876.341-1.254.127-.22.348-.423.653-.6.462-.269 1.015-.271 1.353-.273l.993-.002c1.834 0 2.501.014 3.005.19.872.308 1.538.95 1.848 1.735.078.197.133.455.162.903.03.457.031 1.04.031 1.88v5.113a.974.974 0 1 0 1.947 0v-5.146c0-.8 0-1.447-.035-1.975-.036-.545-.111-1.03-.294-1.495-.529-1.34-1.638-2.373-3.014-2.858-.859-.303-2.331-.303-3.886-.302-2.84 0-4.526 0-5.909.487-2.22.782-3.994 2.444-4.837 4.58-.281.712-.406 1.477-.466 2.394-.059.9-.059 2.013-.059 3.432v2.583c0 1.448 0 2.621.11 3.558.114.974.357 1.811.927 2.53a5 5 0 0 0 1.034.978c.745.526 1.606.75 2.616.855" opacity=".4"/><path fill="#5F43D0" d="M125.417 138v-8.8h1.952v1.776h.544l-.592.48q0-1.12.656-1.76.672-.656 1.824-.656 1.344 0 2.096.864t.752 2.416v.832h-2v-.736q0-.816-.416-1.232t-1.184-.416q-.784 0-1.216.48-.416.48-.416 1.36V138zm7.978 0 3.072-4.544-2.864-4.256h2.256l1.36 2.16q.128.192.224.432l.176.384q.063-.144.176-.384.111-.24.224-.432l1.36-2.16h2.272l-2.864 4.256 3.056 4.544h-2.272l-1.52-2.416a4 4 0 0 1-.24-.448 7 7 0 0 0-.192-.384l-.176.384q-.112.24-.24.448L135.667 138zm13.177.16q-.672 0-1.088-.4-.4-.416-.4-1.072 0-.672.4-1.072.416-.416 1.088-.416t1.072.416q.416.4.416 1.072 0 .656-.416 1.072-.4.4-1.072.4m9.834-.16q-1.231 0-1.968-.704-.72-.72-.72-1.936v-4.352h-2.432V129.2h2.432v-2.48h2.016v2.48h3.504v1.808h-3.504v4.304q0 .384.208.64.225.24.608.24h2.608V138zm4.506 0v-11.68h2v2.88l-.048 1.68h.544l-.592.464q.016-1.056.672-1.68t1.744-.624q1.296 0 2.064.864.784.864.784 2.32V138h-2v-5.536q0-.816-.416-1.248-.416-.448-1.152-.448-.752 0-1.184.448-.416.448-.416 1.28V138zm12.538.16q-1.12 0-1.952-.432a3.16 3.16 0 0 1-1.296-1.216q-.448-.8-.448-1.872v-2.08q0-1.072.448-1.856a3.14 3.14 0 0 1 1.296-1.232q.831-.432 1.952-.432 1.104 0 1.92.432.831.432 1.28 1.216.464.768.464 1.808v1.6h-5.44v.608q0 .896.464 1.36.463.448 1.312.448.624 0 1.056-.208.447-.224.528-.64h1.984q-.209 1.136-1.184 1.824-.977.672-2.384.672m1.744-5.2v-.48q0-.912-.448-1.408-.432-.496-1.296-.496t-1.328.512q-.448.496-.448 1.408v.304l3.664-.016zm3.146 5.04v-8.8h1.664v1.28h.336l-.304.224q0-.736.4-1.2t1.072-.464q.72 0 1.168.56.464.544.464 1.424l-.384-.576h.544l-.256.256q.015-.768.432-1.216.416-.448 1.104-.448.815 0 1.328.624.528.624.528 1.632V138h-1.76v-6.56q0-.432-.208-.672-.192-.256-.56-.256a.64.64 0 0 0-.544.256q-.176.24-.176.672V138h-1.6v-6.56q0-.432-.192-.672-.177-.256-.528-.256-.369 0-.576.256-.192.24-.192.672V138zm13.017.16q-1.12 0-1.952-.432a3.2 3.2 0 0 1-1.296-1.216q-.448-.8-.448-1.872v-2.08q0-1.072.448-1.856.465-.8 1.296-1.232.833-.432 1.952-.432 1.104 0 1.92.432.833.432 1.28 1.216.465.768.464 1.808v1.6h-5.44v.608q0 .896.464 1.36.465.448 1.312.448.624 0 1.056-.208.448-.224.528-.64h1.984q-.207 1.136-1.184 1.824-.975.672-2.384.672m1.744-5.2v-.48q0-.912-.448-1.408-.432-.496-1.296-.496-.863 0-1.328.512-.448.496-.448 1.408v.304l3.664-.016z"/></svg>

<svg width="320" height="232" viewBox="0 0 320 232" fill="none" xmlns="http://www.w3.org/2000/svg">
<path fill-rule="evenodd" clip-rule="evenodd" d="M165.118 103.222C164.757 103.641 164.804 104.272 165.222 104.633L167.062 106.218C167.428 106.534 167.649 106.726 167.79 106.875C167.649 107.024 167.428 107.216 167.062 107.532L165.222 109.118C164.804 109.478 164.757 110.11 165.118 110.528C165.478 110.946 166.11 110.993 166.528 110.633L168.368 109.047C168.382 109.034 168.397 109.022 168.411 109.009C168.76 108.709 169.095 108.42 169.334 108.15C169.596 107.854 169.875 107.437 169.875 106.875C169.875 106.313 169.596 105.896 169.334 105.6C169.095 105.33 168.76 105.042 168.411 104.741C168.397 104.728 168.382 104.716 168.368 104.703L166.528 103.118C166.11 102.757 165.478 102.804 165.118 103.222Z" fill="#5F43D0"/>
<path fill-rule="evenodd" clip-rule="evenodd" d="M162.632 103.222C162.993 103.641 162.946 104.272 162.528 104.633L160.688 106.218C160.322 106.534 160.101 106.726 159.96 106.875C160.101 107.024 160.322 107.216 160.688 107.532L162.528 109.118C162.946 109.478 162.993 110.11 162.632 110.528C162.272 110.946 161.641 110.993 161.222 110.633L159.382 109.047C159.368 109.034 159.353 109.022 159.339 109.009C158.99 108.709 158.655 108.42 158.416 108.15C158.154 107.854 157.875 107.437 157.875 106.875C157.875 106.313 158.154 105.896 158.416 105.6C158.655 105.33 158.99 105.042 159.339 104.741C159.353 104.728 159.368 104.716 159.382 104.703L161.222 103.118C161.641 102.757 162.272 102.804 162.632 103.222Z" fill="#5F43D0"/>
<path opacity="0.4" d="M154.812 110.522C155.794 110.625 155.357 110.625 156.898 110.625C157.437 110.625 157.875 110.187 157.875 109.648C157.875 109.108 157.437 108.67 156.898 108.67C155.289 108.67 155.883 108.669 155.013 108.578C154.159 108.489 153.676 108.322 153.318 108.069C153.076 107.898 152.864 107.697 152.686 107.473C152.431 107.15 152.261 106.717 152.169 105.931C152.074 105.121 152.072 104.064 152.072 102.54L152.072 99.64C152.072 99.373 152.072 98.7344 152.353 98.2623C152.526 97.9713 152.747 97.7282 152.975 97.6044C153.341 97.4048 153.762 97.2915 154.208 97.2915L155.249 97.328C155.629 97.3359 156.072 97.3239 156.5 97.2091C157.334 96.9857 157.986 96.3343 158.209 95.5003C158.324 95.0721 158.336 94.6286 158.328 94.2485L158.292 93.2081C158.292 92.7405 158.416 92.3333 158.633 91.9549C158.76 91.7343 158.981 91.5324 159.286 91.3551C159.748 91.0862 160.301 91.0837 160.639 91.0822C160.977 91.0807 161.334 91.0795 161.632 91.0795C163.466 91.0795 164.133 91.0935 164.637 91.2708C165.509 91.5783 166.175 92.2199 166.485 93.0053C166.563 93.2019 166.618 93.4603 166.647 93.9083C166.677 94.365 166.678 94.9479 166.678 95.7882V100.901C166.678 101.439 167.114 101.875 167.651 101.875C168.189 101.875 168.625 101.439 168.625 100.901V95.755C168.625 94.9558 168.625 94.3083 168.59 93.7797C168.554 93.2351 168.479 92.7494 168.296 92.2852C167.767 90.9459 166.658 89.9116 165.282 89.4266C164.423 89.1241 162.951 89.1244 161.396 89.125C158.556 89.1246 156.87 89.1244 155.487 89.6115C153.267 90.3937 151.493 92.0564 150.65 94.1925C150.369 94.9044 150.244 95.6691 150.184 96.586C150.125 97.4867 150.125 98.5993 150.125 100.018V102.601C150.125 104.049 150.125 105.222 150.235 106.159C150.349 107.133 150.592 107.97 151.162 108.689C151.457 109.062 151.806 109.391 152.196 109.667C152.941 110.193 153.802 110.417 154.812 110.522Z" fill="#5F43D0"/>
<path d="M125.417 138V129.2H127.369V130.976H127.913L127.321 131.456C127.321 130.709 127.54 130.123 127.977 129.696C128.425 129.259 129.033 129.04 129.801 129.04C130.697 129.04 131.396 129.328 131.897 129.904C132.398 130.48 132.649 131.285 132.649 132.32V133.152H130.649V132.416C130.649 131.872 130.51 131.461 130.233 131.184C129.956 130.907 129.561 130.768 129.049 130.768C128.526 130.768 128.121 130.928 127.833 131.248C127.556 131.568 127.417 132.021 127.417 132.608V138H125.417ZM133.395 138L136.467 133.456L133.603 129.2H135.859L137.219 131.36C137.304 131.488 137.379 131.632 137.443 131.792C137.517 131.952 137.576 132.08 137.619 132.176C137.661 132.08 137.72 131.952 137.795 131.792C137.869 131.632 137.944 131.488 138.019 131.36L139.379 129.2H141.651L138.787 133.456L141.843 138H139.571L138.051 135.584C137.965 135.445 137.885 135.296 137.811 135.136C137.736 134.976 137.672 134.848 137.619 134.752C137.576 134.848 137.517 134.976 137.443 135.136C137.368 135.296 137.288 135.445 137.203 135.584L135.667 138H133.395ZM146.572 138.16C146.124 138.16 145.762 138.027 145.484 137.76C145.218 137.483 145.084 137.125 145.084 136.688C145.084 136.24 145.218 135.883 145.484 135.616C145.762 135.339 146.124 135.2 146.572 135.2C147.02 135.2 147.378 135.339 147.644 135.616C147.922 135.883 148.06 136.24 148.06 136.688C148.06 137.125 147.922 137.483 147.644 137.76C147.378 138.027 147.02 138.16 146.572 138.16ZM156.406 138C155.585 138 154.929 137.765 154.438 137.296C153.958 136.816 153.718 136.171 153.718 135.36V131.008H151.286V129.2H153.718V126.72H155.734V129.2H159.238V131.008H155.734V135.312C155.734 135.568 155.804 135.781 155.942 135.952C156.092 136.112 156.294 136.192 156.55 136.192H159.158V138H156.406ZM160.912 138V126.32H162.912V129.2L162.864 130.88H163.408L162.816 131.344C162.827 130.64 163.051 130.08 163.488 129.664C163.925 129.248 164.507 129.04 165.232 129.04C166.096 129.04 166.784 129.328 167.296 129.904C167.819 130.48 168.08 131.253 168.08 132.224V138H166.08V132.464C166.08 131.92 165.941 131.504 165.664 131.216C165.387 130.917 165.003 130.768 164.512 130.768C164.011 130.768 163.616 130.917 163.328 131.216C163.051 131.515 162.912 131.941 162.912 132.496V138H160.912ZM173.45 138.16C172.703 138.16 172.052 138.016 171.498 137.728C170.943 137.44 170.511 137.035 170.202 136.512C169.903 135.979 169.754 135.355 169.754 134.64V132.56C169.754 131.845 169.903 131.227 170.202 130.704C170.511 130.171 170.943 129.76 171.498 129.472C172.052 129.184 172.703 129.04 173.45 129.04C174.186 129.04 174.826 129.184 175.37 129.472C175.924 129.76 176.351 130.165 176.65 130.688C176.959 131.2 177.114 131.803 177.114 132.496V134.096H171.674V134.704C171.674 135.301 171.828 135.755 172.138 136.064C172.447 136.363 172.884 136.512 173.45 136.512C173.866 136.512 174.218 136.443 174.506 136.304C174.804 136.155 174.98 135.941 175.034 135.664H177.018C176.879 136.421 176.484 137.029 175.834 137.488C175.183 137.936 174.388 138.16 173.45 138.16ZM175.194 132.96V132.48C175.194 131.872 175.044 131.403 174.746 131.072C174.458 130.741 174.026 130.576 173.45 130.576C172.874 130.576 172.431 130.747 172.122 131.088C171.823 131.419 171.674 131.888 171.674 132.496V132.8L175.338 132.784L175.194 132.96ZM178.34 138V129.2H180.004V130.48H180.34L180.036 130.704C180.036 130.213 180.169 129.813 180.436 129.504C180.702 129.195 181.06 129.04 181.508 129.04C181.988 129.04 182.377 129.227 182.676 129.6C182.985 129.963 183.14 130.437 183.14 131.024L182.756 130.448H183.3L183.044 130.704C183.054 130.192 183.198 129.787 183.476 129.488C183.753 129.189 184.121 129.04 184.58 129.04C185.124 129.04 185.566 129.248 185.908 129.664C186.26 130.08 186.436 130.624 186.436 131.296V138H184.676V131.44C184.676 131.152 184.606 130.928 184.468 130.768C184.34 130.597 184.153 130.512 183.908 130.512C183.673 130.512 183.492 130.597 183.364 130.768C183.246 130.928 183.188 131.152 183.188 131.44V138H181.588V131.44C181.588 131.152 181.524 130.928 181.396 130.768C181.278 130.597 181.102 130.512 180.868 130.512C180.622 130.512 180.43 130.597 180.292 130.768C180.164 130.928 180.1 131.152 180.1 131.44V138H178.34ZM191.357 138.16C190.611 138.16 189.96 138.016 189.405 137.728C188.851 137.44 188.419 137.035 188.109 136.512C187.811 135.979 187.661 135.355 187.661 134.64V132.56C187.661 131.845 187.811 131.227 188.109 130.704C188.419 130.171 188.851 129.76 189.405 129.472C189.96 129.184 190.611 129.04 191.357 129.04C192.093 129.04 192.733 129.184 193.277 129.472C193.832 129.76 194.259 130.165 194.557 130.688C194.867 131.2 195.021 131.803 195.021 132.496V134.096H189.581V134.704C189.581 135.301 189.736 135.755 190.045 136.064C190.355 136.363 190.792 136.512 191.357 136.512C191.773 136.512 192.125 136.443 192.413 136.304C192.712 136.155 192.888 135.941 192.941 135.664H194.925C194.787 136.421 194.392 137.029 193.741 137.488C193.091 137.936 192.296 138.16 191.357 138.16ZM193.101 132.96V132.48C193.101 131.872 192.952 131.403 192.653 131.072C192.365 130.741 191.933 130.576 191.357 130.576C190.781 130.576 190.339 130.747 190.029 131.088C189.731 131.419 189.581 131.888 189.581 132.496V132.8L193.245 132.784L193.101 132.96Z" fill="#5F43D0"/>
</svg>
